learning-site/svg (5).svg

<svg xmlns="http://www.w3.org/2000/svg" xmlns:xlink="http://www.w3.org/1999/xlink" viewBox="0 0 100 100" version="1.1"><!-- Generator: Sketch 52.4 (67378) - http://www.bohemiancoding.com/sketch --><title>Work with cases and SLAs in Customer Service/managing-customer-service-workloads-using-queues</title><desc>Created with Sketch.</desc><defs><rect id="path-1" x="0" y="0" width="96" height="96" rx="48"></rect><filter x="-27.2%" y="-8.0%" width="156.5%" height="116.7%" filterUnits="objectBoundingBox" id="filter-3"><feOffset dx="0" dy="2" in="SourceAlpha" result="shadowOffsetOuter1"></feOffset><feColorMatrix values="0 0 0 0 0   0 0 0 0 0   0 0 0 0 0  0 0 0 0.0963258605 0" type="matrix" in="shadowOffsetOuter1" result="shadowMatrixOuter1"></feColorMatrix><feMerge><feMergeNode in="shadowMatrixOuter1"></feMergeNode><feMergeNode in="SourceGraphic"></feMergeNode></feMerge></filter><filter x="-27.2%" y="-8.0%" width="156.5%" height="116.7%" filterUnits="objectBoundingBox" id="filter-4"><feOffset dx="0" dy="2" in="SourceAlpha" result="shadowOffsetOuter1"></feOffset><feColorMatrix values="0 0 0 0 0   0 0 0 0 0   0 0 0 0 0  0 0 0 0.0963258605 0" type="matrix" in="shadowOffsetOuter1" result="shadowMatrixOuter1"></feColorMatrix><feMerge><feMergeNode in="shadowMatrixOuter1"></feMergeNode><feMergeNode in="SourceGraphic"></feMergeNode></feMerge></filter><path d="M24.1334901,35.7035296 C39.6233669,45.5037921 59.5566559,44.8546296 72.1417779,35.6181296" id="path-5"></path><filter x="-5.1%" y="-28.5%" width="110.2%" height="184.9%" filterUnits="objectBoundingBox" id="filter-6"><feMorphology radius="1.05" operator="dilate" in="SourceAlpha" result="shadowSpreadOuter1"></feMorphology><feOffset dx="0" dy="2" in="shadowSpreadOuter1" result="shadowOffsetOuter1"></feOffset><feMorphology radius="1.05" operator="erode" in="SourceAlpha" result="shadowInner"></feMorphology><feOffset dx="0" dy="2" in="shadowInner" result="shadowInner"></feOffset><feComposite in="shadowOffsetOuter1" in2="shadowInner" operator="out" result="shadowOffsetOuter1"></feComposite><feColorMatrix values="0 0 0 0 0   0 0 0 0 0   0 0 0 0 0  0 0 0 0.0963258605 0" type="matrix" in="shadowOffsetOuter1"></feColorMatrix></filter><path d="M78.1334901,35.7035296 C93.6233669,45.5037921 113.556656,44.8546296 126.141778,35.6181296" id="path-7"></path><filter x="-5.1%" y="-28.5%" width="110.2%" height="184.9%" filterUnits="objectBoundingBox" id="filter-8"><feMorphology radius="1.05" operator="dilate" in="SourceAlpha" result="shadowSpreadOuter1"></feMorphology><feOffset dx="0" dy="2" in="shadowSpreadOuter1" result="shadowOffsetOuter1"></feOffset><feMorphology radius="1.05" operator="erode" in="SourceAlpha" result="shadowInner"></feMorphology><feOffset dx="0" dy="2" in="shadowInner" result="shadowInner"></feOffset><feComposite in="shadowOffsetOuter1" in2="shadowInner" operator="out" result="shadowOffsetOuter1"></feComposite><feColorMatrix values="0 0 0 0 0   0 0 0 0 0   0 0 0 0 0  0 0 0 0.0963258605 0" type="matrix" in="shadowOffsetOuter1"></feColorMatrix></filter><path d="M-29.8665099,35.7035296 C-14.3766331,45.5037921 5.55665587,44.8546296 18.1417779,35.6181296" id="path-9"></path><filter x="-5.1%" y="-28.5%" width="110.2%" height="184.9%" filterUnits="objectBoundingBox" id="filter-10"><feMorphology radius="1.05" operator="dilate" in="SourceAlpha" result="shadowSpreadOuter1"></feMorphology><feOffset dx="0" dy="2" in="shadowSpreadOuter1" result="shadowOffsetOuter1"></feOffset><feMorphology radius="1.05" operator="erode" in="SourceAlpha" result="shadowInner"></feMorphology><feOffset dx="0" dy="2" in="shadowInner" result="shadowInner"></feOffset><feComposite in="shadowOffsetOuter1" in2="shadowInner" operator="out" result="shadowOffsetOuter1"></feComposite><feColorMatrix values="0 0 0 0 0   0 0 0 0 0   0 0 0 0 0  0 0 0 0.0963258605 0" type="matrix" in="shadowOffsetOuter1"></feColorMatrix></filter></defs><g id="Badges" stroke="none" stroke-width="1" fill="none" fill-rule="evenodd"><g id="Work-with-cases-and-SLAs" transform="translate(-579.000000, -718.000000)"><g id="Work-with-cases-and-SLAs-in-Customer-Service/managing-customer-service-workloads-using-queues" transform="translate(579.000000, 718.000000)"><g id="Mask" transform="translate(2.000000, 2.000000)"><mask id="mask-2" fill="white"><use xlink:href="#path-1"></use></mask><use id="BG" fill="#C0DDF4" xlink:href="#path-1"></use><g id="Group-12" filter="url(#filter-3)" mask="url(#mask-2)"><g transform="translate(13.729304, 24.150000)"><rect id="Rectangle" stroke="#546670" stroke-width="0.7" fill="none" x="4.29918978" y="9.45" width="6.34200121" height="2.8" rx="1.4"></rect><path d="M6.89588781,47.7380026 C6.25422115,47.7380026 5.72922115,47.1174293 5.72922115,46.3589509 L5.72922115,6.36644914 C5.72922115,5.60797066 6.25422115,4.98739735 6.89588781,4.98739735 L8.06255448,4.98739735 C8.70422115,4.98739735 9.22922115,5.60797066 9.22922115,6.36644914 L9.22922115,46.3589509 C9.22922115,47.1174293 8.70422115,47.7380026 8.06255448,47.7380026 L6.89588781,47.7380026" id="Fill-75" stroke="none" fill="#ADBDC4" fill-rule="evenodd"></path><path d="M5.73412638,7.18771534 L5.73412638,9.09827443 L6.31255448,9.09827443 C6.95688669,9.09827443 7.47922115,9.62060889 7.47922115,10.2649411 L7.47922115,47.7380026 L8.06255448,47.7380026 C8.70422115,47.7380026 9.22922115,47.1174293 9.22922115,46.3589509 L9.22922115,6.36644914 C9.22922115,6.2244068 9.16738781,6.08650162 9.06763781,5.95756028 C8.50938781,5.2363162 7.47922115,5.78242071 7.47922115,6.7594789" id="Fill-78" stroke="none" fill="#8BA6B1" fill-rule="evenodd"></path><path d="M0.479221147,48.7627 C0.479221147,49.1477 0.794221147,49.4627 1.17922115,49.4627 L13.7792211,49.4627 C14.1642211,49.4627 14.4792211,49.1477 14.4792211,48.7627 L14.4792211,48.0627 C14.4792211,47.6777 14.1894211,47.2381 13.8359211,47.0869 C13.8359211,47.0869 9.96352115,45.2627 9.57922115,45.2627 L5.37922115,45.2627 C4.99422115,45.2627 1.12252115,47.0869 1.12252115,47.0869 C0.769021147,47.2381 0.479221147,47.6777 0.479221147,48.0627 L0.479221147,48.7627" id="Fill-79" stroke="none" fill="#ADBDC4" fill-rule="evenodd"></path><path d="M1.17922115,49.4627 L13.7792211,49.4627 C14.1642211,49.4627 14.4792211,49.1477 14.4792211,48.7627 L14.4792211,48.0627 C14.4792211,47.6777 14.1894211,47.2381 13.8359211,47.0869 C13.8359211,47.0869 9.96352115,45.2627 9.57922115,45.2627 L7.47922115,45.2627 L7.47922115,47.3627 C7.47922115,48.1362 6.85272115,48.7627 6.07922115,48.7627 L0.479221147,48.7627 C0.479221147,49.1477 0.794221147,49.4627 1.17922115,49.4627" id="Fill-80" stroke="none" fill="#8BA6B1" fill-rule="evenodd"></path><circle id="Oval" stroke="none" fill="#546670" fill-rule="evenodd" cx="7.47922115" cy="4.51219833" r="3.83623958"></circle><path d="M4.15799879,6.43342069 C4.72295914,6.76093838 5.37919371,6.94843791 6.07922115,6.94843791 C8.19791776,6.94843791 9.91546073,5.23089495 9.91546073,3.11219833 C9.91546073,2.4121709 9.72796119,1.75593633 9.4004435,1.19097598 C10.545387,1.85472034 11.3154607,3.09352915 11.3154607,4.51219833 C11.3154607,6.63089495 9.59791776,8.34843791 7.47922115,8.34843791 C6.06055197,8.34843791 4.82174315,7.57836414 4.15799879,6.43342069 Z" id="Oval-2" stroke="none" fill="#30404D" fill-rule="evenodd"></path></g></g><g id="Group-12" filter="url(#filter-4)" mask="url(#mask-2)"><g transform="translate(67.570696, 24.150000)"><rect id="Rectangle" stroke="#546670" stroke-width="0.7" fill="none" x="4.29918978" y="9.45" width="6.34200121" height="2.8" rx="1.4"></rect><path d="M6.89588781,47.7380026 C6.25422115,47.7380026 5.72922115,47.1174293 5.72922115,46.3589509 L5.72922115,6.36644914 C5.72922115,5.60797066 6.25422115,4.98739735 6.89588781,4.98739735 L8.06255448,4.98739735 C8.70422115,4.98739735 9.22922115,5.60797066 9.22922115,6.36644914 L9.22922115,46.3589509 C9.22922115,47.1174293 8.70422115,47.7380026 8.06255448,47.7380026 L6.89588781,47.7380026" id="Fill-75" stroke="none" fill="#ADBDC4" fill-rule="evenodd"></path><path d="M5.73412638,7.18771534 L5.73412638,9.09827443 L6.31255448,9.09827443 C6.95688669,9.09827443 7.47922115,9.62060889 7.47922115,10.2649411 L7.47922115,47.7380026 L8.06255448,47.7380026 C8.70422115,47.7380026 9.22922115,47.1174293 9.22922115,46.3589509 L9.22922115,6.36644914 C9.22922115,6.2244068 9.16738781,6.08650162 9.06763781,5.95756028 C8.50938781,5.2363162 7.47922115,5.78242071 7.47922115,6.7594789" id="Fill-78" stroke="none" fill="#8BA6B1" fill-rule="evenodd"></path><path d="M0.479221147,48.7627 C0.479221147,49.1477 0.794221147,49.4627 1.17922115,49.4627 L13.7792211,49.4627 C14.1642211,49.4627 14.4792211,49.1477 14.4792211,48.7627 L14.4792211,48.0627 C14.4792211,47.6777 14.1894211,47.2381 13.8359211,47.0869 C13.8359211,47.0869 9.96352115,45.2627 9.57922115,45.2627 L5.37922115,45.2627 C4.99422115,45.2627 1.12252115,47.0869 1.12252115,47.0869 C0.769021147,47.2381 0.479221147,47.6777 0.479221147,48.0627 L0.479221147,48.7627" id="Fill-79" stroke="none" fill="#ADBDC4" fill-rule="evenodd"></path><path d="M1.17922115,49.4627 L13.7792211,49.4627 C14.1642211,49.4627 14.4792211,49.1477 14.4792211,48.7627 L14.4792211,48.0627 C14.4792211,47.6777 14.1894211,47.2381 13.8359211,47.0869 C13.8359211,47.0869 9.96352115,45.2627 9.57922115,45.2627 L7.47922115,45.2627 L7.47922115,47.3627 C7.47922115,48.1362 6.85272115,48.7627 6.07922115,48.7627 L0.479221147,48.7627 C0.479221147,49.1477 0.794221147,49.4627 1.17922115,49.4627" id="Fill-80" stroke="none" fill="#8BA6B1" fill-rule="evenodd"></path><circle id="Oval" stroke="none" fill="#546670" fill-rule="evenodd" cx="7.47922115" cy="4.51219833" r="3.83623958"></circle><path d="M4.15799879,6.43342069 C4.72295914,6.76093838 5.37919371,6.94843791 6.07922115,6.94843791 C8.19791776,6.94843791 9.91546073,5.23089495 9.91546073,3.11219833 C9.91546073,2.4121709 9.72796119,1.75593633 9.4004435,1.19097598 C10.545387,1.85472034 11.3154607,3.09352915 11.3154607,4.51219833 C11.3154607,6.63089495 9.59791776,8.34843791 7.47922115,8.34843791 C6.06055197,8.34843791 4.82174315,7.57836414 4.15799879,6.43342069 Z" id="Oval-2" stroke="none" fill="#30404D" fill-rule="evenodd"></path></g></g><g id="Path-2" stroke-linecap="round" mask="url(#mask-2)"><use fill="black" fill-opacity="1" filter="url(#filter-6)" xlink:href="#path-5"></use><use stroke="#DF5142" stroke-width="2.1" xlink:href="#path-5"></use></g><g id="Path-2" stroke-linecap="round" mask="url(#mask-2)"><use fill="black" fill-opacity="1" filter="url(#filter-8)" xlink:href="#path-7"></use><use stroke="#DF5142" stroke-width="2.1" xlink:href="#path-7"></use></g><g id="Path-2" stroke-linecap="round" mask="url(#mask-2)"><use fill="black" fill-opacity="1" filter="url(#filter-10)" xlink:href="#path-9"></use><use stroke="#DF5142" stroke-width="2.1" xlink:href="#path-9"></use></g></g><g id="Azure-Border" stroke="#0078D4" stroke-width="4"><rect x="2" y="2" width="96" height="96" rx="48"></rect></g></g></g></g></svg>

<svg xmlns="http://www.w3.org/2000/svg" xmlns:xlink="http://www.w3.org/1999/xlink" viewBox="0 0 100 100"><defs><rect id="a" x="0" y="0" width="96" height="96" rx="48"/><filter x="-27.2%" y="-8%" width="156.5%" height="116.7%" filterUnits="objectBoundingBox" id="b"><feOffset dy="2" in="SourceAlpha" result="shadowOffsetOuter1"/><feColorMatrix values="0 0 0 0 0 0 0 0 0 0 0 0 0 0 0 0 0 0 0.0963258605 0" in="shadowOffsetOuter1" result="shadowMatrixOuter1"/><feMerge><feMergeNode in="shadowMatrixOuter1"/><feMergeNode in="SourceGraphic"/></feMerge></filter><filter x="-27.2%" y="-8%" width="156.5%" height="116.7%" filterUnits="objectBoundingBox" id="d"><feOffset dy="2" in="SourceAlpha" result="shadowOffsetOuter1"/><feColorMatrix values="0 0 0 0 0 0 0 0 0 0 0 0 0 0 0 0 0 0 0.0963258605 0" in="shadowOffsetOuter1" result="shadowMatrixOuter1"/><feMerge><feMergeNode in="shadowMatrixOuter1"/><feMergeNode in="SourceGraphic"/></feMerge></filter><path d="M24.133 35.704c15.49 9.8 35.424 9.15 48.009-.086" id="f"/><filter x="-5.1%" y="-28.5%" width="110.2%" height="184.9%" filterUnits="objectBoundingBox" id="e"><feMorphology radius="1.05" operator="dilate" in="SourceAlpha" result="shadowSpreadOuter1"/><feOffset dy="2" in="shadowSpreadOuter1" result="shadowOffsetOuter1"/><feMorphology radius="1.05" in="SourceAlpha" result="shadowInner"/><feOffset dy="2" in="shadowInner" result="shadowInner"/><feComposite in="shadowOffsetOuter1" in2="shadowInner" operator="out" result="shadowOffsetOuter1"/><feColorMatrix values="0 0 0 0 0 0 0 0 0 0 0 0 0 0 0 0 0 0 0.0963258605 0" in="shadowOffsetOuter1"/></filter><path d="M78.133 35.704c15.49 9.8 35.424 9.15 48.009-.086" id="h"/><filter x="-5.1%" y="-28.5%" width="110.2%" height="184.9%" filterUnits="objectBoundingBox" id="g"><feMorphology radius="1.05" operator="dilate" in="SourceAlpha" result="shadowSpreadOuter1"/><feOffset dy="2" in="shadowSpreadOuter1" result="shadowOffsetOuter1"/><feMorphology radius="1.05" in="SourceAlpha" result="shadowInner"/><feOffset dy="2" in="shadowInner" result="shadowInner"/><feComposite in="shadowOffsetOuter1" in2="shadowInner" operator="out" result="shadowOffsetOuter1"/><feColorMatrix values="0 0 0 0 0 0 0 0 0 0 0 0 0 0 0 0 0 0 0.0963258605 0" in="shadowOffsetOuter1"/></filter><path d="M-29.867 35.704c15.49 9.8 35.424 9.15 48.009-.086" id="j"/><filter x="-5.1%" y="-28.5%" width="110.2%" height="184.9%" filterUnits="objectBoundingBox" id="i"><feMorphology radius="1.05" operator="dilate" in="SourceAlpha" result="shadowSpreadOuter1"/><feOffset dy="2" in="shadowSpreadOuter1" result="shadowOffsetOuter1"/><feMorphology radius="1.05" in="SourceAlpha" result="shadowInner"/><feOffset dy="2" in="shadowInner" result="shadowInner"/><feComposite in="shadowOffsetOuter1" in2="shadowInner" operator="out" result="shadowOffsetOuter1"/><feColorMatrix values="0 0 0 0 0 0 0 0 0 0 0 0 0 0 0 0 0 0 0.0963258605 0" in="shadowOffsetOuter1"/></filter></defs><g fill="none" fill-rule="evenodd"><g transform="translate(2 2)"><mask id="c" fill="#fff"><use xlink:href="#a"/></mask><use fill="#C0DDF4" xlink:href="#a"/><g filter="url(#b)" mask="url(#c)"><g transform="translate(13.73 24.15)"><rect stroke="#546670" stroke-width=".7" x="4.299" y="9.45" width="6.342" height="2.8" rx="1.4"/><path d="M6.896 47.738c-.642 0-1.167-.62-1.167-1.379V6.366c0-.758.525-1.379 1.167-1.379h1.167c.641 0 1.166.621 1.166 1.38v39.992c0 .758-.525 1.379-1.166 1.379H6.896" fill="#ADBDC4"/><path d="M5.734 7.188v1.91h.579c.644 0 1.166.523 1.166 1.167v37.473h.584c.641 0 1.166-.62 1.166-1.379V6.366a.677.677 0 0 0-.161-.408c-.559-.722-1.589-.176-1.589.801" fill="#8BA6B1"/><path d="M.48 48.763c0 .385.314.7.7.7h12.6c.384 0 .7-.315.7-.7v-.7c0-.385-.29-.825-.644-.976 0 0-3.872-1.824-4.257-1.824h-4.2c-.385 0-4.256 1.824-4.256 1.824-.354.151-.644.59-.644.976v.7" fill="#ADBDC4"/><path d="M1.18 49.463h12.6c.384 0 .7-.315.7-.7v-.7c0-.385-.29-.825-.644-.976 0 0-3.872-1.824-4.257-1.824h-2.1v2.1a1.4 1.4 0 0 1-1.4 1.4H.48c0 .385.315.7.7.7" fill="#8BA6B1"/><circle fill="#546670" cx="7.479" cy="4.512" r="3.836"/><path d="M4.158 6.433A3.836 3.836 0 0 0 9.4 1.191a3.836 3.836 0 1 1-5.242 5.242z" fill="#30404D"/></g></g><g filter="url(#d)" mask="url(#c)"><g transform="translate(67.57 24.15)"><rect stroke="#546670" stroke-width=".7" x="4.299" y="9.45" width="6.342" height="2.8" rx="1.4"/><path d="M6.896 47.738c-.642 0-1.167-.62-1.167-1.379V6.366c0-.758.525-1.379 1.167-1.379h1.167c.641 0 1.166.621 1.166 1.38v39.992c0 .758-.525 1.379-1.166 1.379H6.896" fill="#ADBDC4"/><path d="M5.734 7.188v1.91h.579c.644 0 1.166.523 1.166 1.167v37.473h.584c.641 0 1.166-.62 1.166-1.379V6.366a.677.677 0 0 0-.161-.408c-.559-.722-1.589-.176-1.589.801" fill="#8BA6B1"/><path d="M.48 48.763c0 .385.314.7.7.7h12.6c.384 0 .7-.315.7-.7v-.7c0-.385-.29-.825-.644-.976 0 0-3.872-1.824-4.257-1.824h-4.2c-.385 0-4.256 1.824-4.256 1.824-.354.151-.644.59-.644.976v.7" fill="#ADBDC4"/><path d="M1.18 49.463h12.6c.384 0 .7-.315.7-.7v-.7c0-.385-.29-.825-.644-.976 0 0-3.872-1.824-4.257-1.824h-2.1v2.1a1.4 1.4 0 0 1-1.4 1.4H.48c0 .385.315.7.7.7" fill="#8BA6B1"/><circle fill="#546670" cx="7.479" cy="4.512" r="3.836"/><path d="M4.158 6.433A3.836 3.836 0 0 0 9.4 1.191a3.836 3.836 0 1 1-5.242 5.242z" fill="#30404D"/></g></g><g stroke-linecap="round" mask="url(#c)"><use fill="#000" filter="url(#e)" xlink:href="#f"/><use stroke="#DF5142" stroke-width="2.1" xlink:href="#f"/></g><g stroke-linecap="round" mask="url(#c)"><use fill="#000" filter="url(#g)" xlink:href="#h"/><use stroke="#DF5142" stroke-width="2.1" xlink:href="#h"/></g><g stroke-linecap="round" mask="url(#c)"><use fill="#000" filter="url(#i)" xlink:href="#j"/><use stroke="#DF5142" stroke-width="2.1" xlink:href="#j"/></g></g><rect x="2" y="2" width="96" height="96" rx="48" stroke="#0078D4" stroke-width="4"/></g></svg>
